public/topics/26.svg

<svg width="250" height="250" viewBox="0 0 250 250" fill="none" xmlns="http://www.w3.org/2000/svg">
<rect width="250" height="250" rx="30" fill="#33CCCC"/>
<path d="M57.2 174.2C61.7333 174.467 64.7333 174.6 66.2 174.6C70.7333 174.6 74.7333 174.533 78.2 174.4C81.8 174.267 84.8667 174.133 87.4 174C93.9333 173.6 99.8 173.4 105 173.4C110.067 173.4 113.8 174.733 116.2 177.4C118.6 180.067 119.8 183.6 119.8 188C119.8 190.133 118.4 191.867 115.6 193.2C112.8 194.4 109.933 195 107 195C104.467 195 99.2 194.733 91.2 194.2C81.6 193.4 74.0667 193 68.6 193C65.6667 193 62.2 193.2 58.2 193.6C56.6 193.733 54.6667 193.867 52.4 194C50.1333 194.133 47.6 194.2 44.8 194.2C39.4667 194.2 35.4 193.467 32.6 192C29.8 190.533 28.4 187.867 28.4 184C28.4 180.667 29.7333 177.267 32.4 173.8C35.0667 170.333 38.8 166.2 43.6 161.4L48.4 156.6C50.5333 154.333 54.4667 150.467 60.2 145C69.6667 136.467 77 128.933 82.2 122.4C87.5333 115.867 90.2 109.4 90.2 103C90.2 98.8667 88.2 95.5333 84.2 93C80.3333 90.3333 75.8667 89 70.8 89C63.0667 89 57.4667 90.7333 54 94.2C50.6667 97.5333 49 102.4 49 108.8C49 110.4 48.0667 111.867 46.2 113.2C44.4667 114.4 42.2667 115 39.6 115C35.8667 115 33.2667 113.667 31.8 111C30.3333 108.333 29.6 105.067 29.6 101.2C29.6 95.0667 31.4667 89.6667 35.2 85C38.9333 80.2 44 76.4667 50.4 73.8C56.9333 71.1333 64.1333 69.8 72 69.8C77.6 69.8 83.4 71.2 89.4 74C95.5333 76.6667 100.6 80.3333 104.6 85C108.733 89.5333 110.8 94.5333 110.8 100C110.8 108.267 108.733 116.133 104.6 123.6C100.467 131.067 95.6 137.733 90 143.6C84.5333 149.333 77.4 156.133 68.6 164C64.3333 167.6 60.5333 171 57.2 174.2ZM187.073 89C182.54 90.7333 178.673 93 175.473 95.8C172.273 98.4667 169.407 101.733 166.873 105.6L163.673 110.6C161.273 114.2 159.473 117.133 158.273 119.4C157.073 121.667 156.273 124.067 155.873 126.6C162.407 119.933 171.74 116.6 183.873 116.6C189.073 116.6 194.54 118.067 200.273 121C206.14 123.933 210.873 127.333 214.473 131.2C216.74 133.733 218.607 137.6 220.073 142.8C221.673 148 222.473 153.533 222.473 159.4C222.473 164.067 221.073 168.867 218.273 173.8C215.473 178.6 212.007 182.8 207.873 186.4C203.873 190 200.14 192.267 196.673 193.2C191.34 194.533 186.74 195.2 182.873 195.2C174.073 195.2 165.94 192.8 158.473 188C151.007 183.2 145.073 176.8 140.673 168.8C136.273 160.667 134.073 151.867 134.073 142.4C134.073 129.333 137.207 116.867 143.473 105C149.873 93 158.273 83.2667 168.673 75.8C170.407 74.6 173.473 73.3333 177.873 72C182.407 70.5333 186.407 69.8 189.873 69.8C196.407 69.8 199.673 72.4 199.673 77.6C199.673 80.6667 198.54 83.0667 196.273 84.8C194.14 86.5333 191.073 87.9333 187.073 89ZM179.073 176.8C182.14 176.8 184.74 176.667 186.873 176.4C189.007 176 190.94 175.267 192.673 174.2C195.34 172.333 197.673 170.133 199.673 167.6C201.807 164.933 202.873 162.4 202.873 160C202.873 150.8 200.607 144.333 196.073 140.6C191.673 136.867 186.473 134.933 180.473 134.8C177.407 134.8 173.873 135.667 169.873 137.4C166.007 139 162.673 141.133 159.873 143.8C157.207 146.467 155.873 149.067 155.873 151.6C155.873 157.333 157.073 162.133 159.473 166C162.007 169.733 165.073 172.467 168.673 174.2C172.273 175.933 175.74 176.8 179.073 176.8Z" fill="white"/>
</svg>

<svg xmlns="http://www.w3.org/2000/svg" width="250" height="250" fill="none" viewBox="0 0 250 250"><rect width="250" height="250" fill="#3cc" rx="30"/><path fill="#fff" d="M57.2 174.2q6.8.4 9 .4 6.8 0 12-.2 5.4-.2 9.2-.4 9.8-.6 17.6-.6 7.6 0 11.2 4t3.6 10.6q0 3.2-4.2 5.2-4.2 1.8-8.6 1.8-3.8 0-15.8-.8-14.4-1.2-22.6-1.2-4.4 0-10.4.6-2.4.2-5.8.4t-7.6.2q-8 0-12.2-2.2t-4.2-8q0-5 4-10.2t11.2-12.4l4.8-4.8q3.2-3.4 11.8-11.6 14.2-12.8 22-22.6 8-9.8 8-19.4 0-6.2-6-10-5.8-4-13.4-4-11.6 0-16.8 5.2-5 5-5 14.6 0 2.4-2.8 4.4-2.6 1.8-6.6 1.8-5.6 0-7.8-4t-2.2-9.8q0-9.2 5.6-16.2 5.6-7.2 15.2-11.2 9.8-4 21.6-4 8.4 0 17.4 4.2 9.2 4 15.2 11 6.2 6.8 6.2 15 0 12.4-6.2 23.6t-14.6 20q-8.2 8.6-21.4 20.4-6.4 5.4-11.4 10.2M187.073 89q-6.8 2.6-11.6 6.8-4.8 4-8.6 9.8l-3.2 5q-3.6 5.4-5.4 8.8t-2.4 7.2q9.8-10 28-10 7.8 0 16.4 4.4 8.8 4.4 14.2 10.2 3.4 3.8 5.6 11.6 2.4 7.8 2.4 16.6 0 7-4.2 14.4-4.2 7.2-10.4 12.6-6 5.4-11.2 6.8-8 2-13.8 2-13.2 0-24.4-7.2t-17.8-19.2q-6.6-12.2-6.6-26.4 0-19.6 9.4-37.4 9.6-18 25.2-29.2 2.6-1.8 9.2-3.8 6.801-2.2 12-2.2 9.8 0 9.8 7.8 0 4.6-3.4 7.2-3.2 2.6-9.2 4.2m-8 87.8q4.6 0 7.8-.4 3.2-.6 5.8-2.2 4-2.8 7-6.6 3.2-4 3.2-7.6 0-13.8-6.8-19.4-6.6-5.6-15.6-5.8-4.6 0-10.6 2.6-5.8 2.4-10 6.4-4 4-4 7.8 0 8.6 3.6 14.4 3.8 5.6 9.2 8.2t10.4 2.6"/></svg>
